packages/foundations/assets/icons/functional/images/business & payment/shopping_cart_disabled_14.svg

<svg width="14" height="14" viewBox="0 0 14 14" fill="none" xmlns="http://www.w3.org/2000/svg">
<g clip-path="url(#clip0_2202_1407)">
<path fill-rule="evenodd" clip-rule="evenodd" d="M5.76795 11.195C5.88469 11.347 5.94797 11.5333 5.94795 11.725C5.94716 11.9568 5.85472 12.1789 5.69079 12.3428C5.52687 12.5067 5.30477 12.5992 5.07295 12.6C4.88089 12.6017 4.69359 12.5402 4.53995 12.425L5.76795 11.195ZM9.79795 10.85C10.2789 10.85 10.6729 11.244 10.6729 11.725C10.6724 11.9569 10.5801 12.1791 10.4161 12.3431C10.2521 12.5071 10.0299 12.5994 9.79795 12.6C9.56613 12.5992 9.34403 12.5067 9.1801 12.3428C9.01618 12.1789 8.92374 11.9568 8.92295 11.725C8.92295 11.244 9.31695 10.85 9.79795 10.85ZM2.73195 1.39997C3.38895 1.39997 3.91395 1.85997 4.06695 2.51597L4.13195 2.79997H10.2049L11.0689 1.93597L11.4079 1.60197C11.4733 1.53735 11.5508 1.48625 11.636 1.45158C11.7211 1.41692 11.8123 1.39936 11.9042 1.39992C11.9961 1.40047 12.087 1.41913 12.1718 1.45483C12.2565 1.49053 12.3333 1.54257 12.3979 1.60797C12.6479 1.86297 12.6939 2.31497 12.3909 2.59797C12.2809 2.70997 9.24795 5.74197 3.29495 11.697C3.22994 11.762 3.15277 11.8135 3.06784 11.8487C2.98291 11.8839 2.89188 11.902 2.79995 11.902C2.70802 11.902 2.61699 11.8839 2.53206 11.8487C2.44712 11.8135 2.36995 11.762 2.30495 11.697C2.23994 11.632 2.18838 11.5548 2.1532 11.4699C2.11802 11.3849 2.09991 11.2939 2.09991 11.202C2.09991 11.11 2.11802 11.019 2.1532 10.9341C2.18838 10.8491 2.23994 10.772 2.30495 10.707C2.81905 10.1894 3.33439 9.67308 3.85095 9.15797L2.71095 2.79997H2.09795C1.9127 2.79866 1.73541 2.72449 1.60442 2.5935C1.47343 2.46251 1.39926 2.28522 1.39795 2.09997C1.39795 1.72797 1.72595 1.39997 2.09795 1.39997H2.73195ZM10.1479 9.09997C10.5419 9.09997 10.8479 9.40597 10.8479 9.79997C10.8479 10.128 10.5419 10.5 10.1479 10.5H6.46295L7.86295 9.09997H10.1479ZM11.8969 5.06697L11.4819 6.84697C11.3519 7.37197 10.9569 7.87497 10.2569 7.94097L8.89495 8.06797L11.8969 5.06697ZM8.80495 4.19997H4.37295L4.89795 7.04397L6.07795 6.92897L8.80495 4.19997Z" fill="#1A1C1F"/>
</g>
<defs>
<clipPath id="clip0_2202_1407">
<rect width="14" height="14" fill="white"/>
</clipPath>
</defs>
</svg>

<svg xmlns="http://www.w3.org/2000/svg" width="14" height="14" fill="none"><g clip-path="url(#a)"><path fill="#1A1C1F" fill-rule="evenodd" d="M5.768 11.195a.87.87 0 0 1-.077 1.148.88.88 0 0 1-1.151.082zm4.03-.345c.48 0 .875.394.875.875a.877.877 0 0 1-.875.875.88.88 0 0 1-.875-.875c0-.481.394-.875.875-.875M2.732 1.4c.657 0 1.182.46 1.335 1.116l.065.284h6.073l.864-.864.339-.334a.7.7 0 0 1 .99.006c.25.255.296.707-.007.99q-.166.167-9.096 9.099a.7.7 0 0 1-.99-.99q.772-.777 1.546-1.549L2.711 2.8h-.613a.705.705 0 0 1-.7-.7c0-.372.328-.7.7-.7zm7.416 7.7c.394 0 .7.306.7.7 0 .328-.306.7-.7.7H6.463l1.4-1.4zm1.749-4.033-.415 1.78c-.13.525-.525 1.028-1.225 1.094l-1.362.127zM8.805 4.2H4.373l.525 2.844 1.18-.115z" clip-rule="evenodd"/></g><defs><clipPath id="a"><path fill="#fff" d="M0 0h14v14H0z"/></clipPath></defs></svg>
